X: 12254
T: Fairhaired Boy, The
R: reel
M: 4/4
K: Dmajor
c|ABAG FGAB|=cAdc BG G2|A z AG FGAe|fdec Addc|
A2 AG FGAB|=cAdc BG G2|A z AG FGAe|fdec Add||
g|f2 df efdg|f2 df ec A2|f2 df efdg|fdec Addg|
f2 df efdg|f2 df ec A2|ABcd efge|ageg fdd||

